X:1
T:Title
%%score { 1 | 2 }
L:1/8
Q:1/4=106
M:4/4
K:Bb
V:1 treble nm="Grand Piano"
V:2 bass 
V:1
 [DF]2 [DB]2 [Fd]2 [DB]2 | A2 B2 c4 | [Fd]2 [EFc]2 [DFB]2 [CFA]2 | [=B,FG]2 [=Ec]2 [Fc]4 | %4
w: Alice~Nevin * * *||||
 [DF]2 [DB]2 [Fd]2 [FB]2 | A2 B2 c4 | F2 G2 A2 B2 |[M:8/4] c3 [DFB] [DFB]4 z8 |[M:4/4] [EB]8 | %9
w: |||||
 [DB]8 |] %10
w: |
V:2
 [B,,B,]2 [B,,B,]2 [B,,B,]2 [B,,B,]2 | [F,CF]2 [F,DF]2 [F,A,F]4 | [B,,B,]2 B,,2 B,,2 C,2 | %3
 D,2 [C,B,]2 [F,A,]4 | [B,,B,]2 [B,,F,]2 [B,,B,]2 [D,B,]2 | [F,CF]2 [F,DF]2 [F,A,F]4 | %6
 [F,A,]2 [F,B,F]2 [F,CF]2 [F,DF]2 |[M:8/4] [F,EF]3 B,, B,,4 z8 |[M:4/4] [E,G,]8 | [B,,F,]8 |] %10

